X:131
T: Heddon of Fawley
T: london Pride (2nd version)
R: hp 32
C: Trad.
S: CJS MSS (from Mason)
Z: From Bacon's Handbook of Morris dances (transposed).
M: C|
L: 1/8
K:Amix % 2 sharps
P:A
A2 e2 e2 d2 | BcBA G3 A/2B/2 | c2 e2 dcBA | B4 A4 :||
P:B
e2 ef g2 e2 | agfe d4 | e2 ef g2 e2 | a3 g e2 f2 |
g2 g2 g2 e2 | dcBA G3 A/2B/2 | c2 e2 dcBA | B4 A4 ||

